dist/svgs/unicons/line/notebooks.svg

<svg xmlns="http://www.w3.org/2000/svg" viewBox="0 0 24 24"><path d="M21 6a1 1 0 00-1 1v10a3 3 0 01-3 3H7a1 1 0 000 2h10a5 5 0 005-5V7a1 1 0 00-1-1zm-3 9V5a3 3 0 00-3-3H5a3 3 0 00-3 3v10a3 3 0 003 3h10a3 3 0 003-3zM10 4h2v4.86l-.36-.3a1 1 0 00-1.28 0l-.36.3zM4 15V5a1 1 0 011-1h3v7a1 1 0 001.65.76L11 10.63l1.35 1.13A1 1 0 0013 12a1.06 1.06 0 00.42-.09A1 1 0 0014 11V4h1a1 1 0 011 1v10a1 1 0 01-1 1H5a1 1 0 01-1-1z"/></svg>

<svg xmlns="http://www.w3.org/2000/svg" viewBox="0 0 24 24"><path d="M21,6a1,1,0,0,0-1,1V17a3,3,0,0,1-3,3H7a1,1,0,0,0,0,2H17a5,5,0,0,0,5-5V7A1,1,0,0,0,21,6Zm-3,9V5a3,3,0,0,0-3-3H5A3,3,0,0,0,2,5V15a3,3,0,0,0,3,3H15A3,3,0,0,0,18,15ZM10,4h2V8.86l-.36-.3a1,1,0,0,0-1.28,0l-.36.3ZM4,15V5A1,1,0,0,1,5,4H8v7a1,1,0,0,0,1.65.76L11,10.63l1.35,1.13A1,1,0,0,0,13,12a1.06,1.06,0,0,0,.42-.09A1,1,0,0,0,14,11V4h1a1,1,0,0,1,1,1V15a1,1,0,0,1-1,1H5A1,1,0,0,1,4,15Z"/></svg>
